X: 43465
T: Yellow Car No Return
R: reel
M: 4/4
K: Bminor
|:B2 BA decA|B2 BA BF (3FFF|B2 BA edcA|EFcA cB (3BBB|
BcAF decA|B2 BA BF (3FFF|B2 BA edcA|EFed cB (3BBB:|
|:[d2f2] fd BcdB|[Ae]fec AB(3cBA|[d2f2] fd Bcdf|edcA cB (3BBB|
[d2f2] fd BcdB|efec EFAc|dedB cA (3AAA|EFed cB (3BBB:|

